img/help-01.svg

<svg width="70" height="70" viewBox="0 0 70 70" fill="none" xmlns="http://www.w3.org/2000/svg">
<path d="M66.8182 38.1816C65.8636 38.1816 65.2274 38.8181 65.2274 39.7725V60.4544C65.2274 61.4089 64.5909 62.0452 63.6365 62.0452H6.36364C5.40907 62.0452 4.77278 61.4088 4.77278 60.4544V39.7725C4.77278 38.8179 4.13636 38.1816 3.18192 38.1816C2.22749 38.1816 1.59106 38.8181 1.59106 39.7725V60.4544C1.59106 63.1589 3.65921 65.2271 6.36378 65.2271H63.6365C66.3411 65.2271 68.4092 63.1589 68.4092 60.4544V39.7725C68.4092 38.8179 67.7728 38.1816 66.8182 38.1816Z" fill="#4054F9"/>
<path d="M65.2273 15.9092H4.77272C2.06814 15.9092 0 17.9773 0 20.6819V30.8637C0 33.0909 1.59086 35 3.65914 35.4773L28.6364 41.0455V46.1363C28.6364 47.0909 29.2729 47.7272 30.2273 47.7272H39.7727C40.7273 47.7272 41.3636 47.0908 41.3636 46.1363V41.0455L66.3409 35.4773C68.4091 35 70 33.0909 70 30.8636V20.6818C70 17.9773 67.9319 15.9092 65.2273 15.9092ZM38.1819 44.5455H31.8183V38.1819H38.1819V44.5455ZM66.8181 30.8636C66.8181 31.659 66.3409 32.2955 65.5454 32.4545L41.3636 37.8636V36.5909C41.3636 35.6363 40.7271 35 39.7727 35H30.2273C29.2727 35 28.6364 35.6365 28.6364 36.5909V37.8636L4.45457 32.4546C3.65914 32.2955 3.18186 31.6592 3.18186 30.8637V20.6819C3.18186 19.7273 3.81828 19.091 4.77272 19.091H65.2273C66.1819 19.091 66.8181 19.7275 66.8181 20.6819V30.8636Z" fill="#4054F9"/>
<path d="M42.9546 4.77246H27.0454C24.3408 4.77246 22.2727 6.84061 22.2727 9.54518V11.136C22.2727 12.0906 22.9091 12.7269 23.8636 12.7269C24.818 12.7269 25.4544 12.0905 25.4544 11.136V9.54518C25.4544 8.59061 26.0908 7.95432 27.0453 7.95432H42.9544C43.909 7.95432 44.5453 8.59074 44.5453 9.54518V11.136C44.5453 12.0906 45.1817 12.7269 46.1361 12.7269C47.0907 12.7269 47.727 12.0905 47.727 11.136V9.54518C47.7273 6.84061 45.6591 4.77246 42.9546 4.77246Z" fill="#4054F9"/>
</svg>

<svg width="70" height="70" fill="none" xmlns="http://www.w3.org/2000/svg"><path d="M66.818 38.182c-.954 0-1.59.636-1.59 1.59v20.682c0 .955-.637 1.591-1.591 1.591H6.363c-.955 0-1.591-.636-1.591-1.59V39.772c0-.955-.637-1.591-1.591-1.591-.955 0-1.59.636-1.59 1.59v20.682c0 2.705 2.067 4.773 4.772 4.773h57.273c2.704 0 4.772-2.068 4.772-4.773V39.773c0-.955-.636-1.591-1.59-1.591Z" fill="#4054F9"/><path d="M65.227 15.91H4.773C2.068 15.91 0 17.976 0 20.681v10.182C0 33.09 1.59 35 3.66 35.477l24.976 5.569v5.09c0 .955.637 1.591 1.591 1.591h9.546c.954 0 1.59-.636 1.59-1.59v-5.092l24.978-5.568C68.409 35 70 33.091 70 30.864V20.682c0-2.705-2.068-4.773-4.773-4.773ZM38.182 44.545h-6.364v-6.364h6.364v6.363Zm28.636-13.682c0 .795-.477 1.431-1.273 1.59l-24.181 5.41V36.59c0-.955-.637-1.591-1.591-1.591h-9.546c-.954 0-1.59.636-1.59 1.59v1.274l-24.182-5.41c-.796-.159-1.273-.795-1.273-1.59V20.682c0-.955.636-1.591 1.59-1.591h60.455c.955 0 1.591.636 1.591 1.59v10.183ZM42.955 4.772h-15.91c-2.704 0-4.772 2.069-4.772 4.773v1.591c0 .955.636 1.59 1.59 1.59.955 0 1.591-.636 1.591-1.59v-1.59c0-.955.637-1.592 1.591-1.592h15.91c.954 0 1.59.637 1.59 1.591v1.591c0 .955.637 1.59 1.591 1.59.955 0 1.591-.636 1.591-1.59v-1.59c0-2.705-2.068-4.774-4.772-4.774Z" fill="#4054F9"/></svg>
